!!!SOCIAL_FUNCTION:	songs of war
!!!PDT:	1913
!!!OTL: No_35_They_Are_Playing_a_Game.krn
!!!REG: Great_Lakes
!!!LANG: Non-Tone
!!!LING_GROUP: Algonquin
**kern	**kern
*staff2	*staff1
*clefF4	*clefF4
*k[b-]	*k[b-]
*M2/4	*M2/4
8r	16f\LL
.	16f\JJ
=1	=1
4GG^/	4f\
4GG^/	8d\L
.	8d\J
=2	=2
4GG^/	4d\
4GG^/	8d\L
.	8d\J
=3	=3
4GG^/	4.d\
4GG^/	.
.	8d\
=4	=4
2r	8d\L
.	8B-\J
.	4B-\
=5	=5
2r	8A\L
.	8A\J
.	4A\
=6	=6
2r	8A\L
.	8A\J
.	8A\L
.	8A\J
=7	=7
2r	[2A\
=8	=8
2r	4.A\]
.	16A\LL
.	16A\JJ
=9	=9
2r	4A\
.	8A\L
.	8A\J
=10	=10
2r	4A\
.	8A\L
.	8A\J
=11	=11
2r	4.A\
.	8A\
=12	=12
2r	8A\L
.	8F\J
.	4F\
=13	=13
2r	8D\L
.	8D\J
.	4D\
=14	=14
2r	8D\L
.	8D\J
.	8D\L
.	8D\J
=15	=15
2r	[2D\
=16	=16
2r	4.D\]
.	16F\LL
.	16F\JJ
=17	=17
2r	4F\
.	8D\L
.	8D\J
=18	=18
2r	4D\
.	8D\L
.	8D\J
=19	=19
2r	4.D\
.	8D\
=20	=20
2r	8D/L
.	8AA/J
.	4AA/
=21	=21
2r	8AA/L
.	8AA/J
.	4AA/
=22	=22
2r	8AA/L
.	8AA/J
.	8AA/L
.	8AA/J
=23	=23
2r	[2AA/
=24	=24
2r	4.AA/]
.	8r
==	==
*-	*-
